X:1813
T:Ent 'anara garda
O:england
C:MCTB 1/46
M:3/8
L:1/16
K:C
def2e2|d2efg2|f4e2|d2c4|\
def2e2|d2efg2|f4e2|d6:|
|:def2e2|c2d2e2|c4B2|c2d4|\
def2e2|c2d2e2|c4B2|c6:|
